public/illustrations/harvester.svg

<svg width="371" height="348" viewBox="0 0 371 348" fill="none" xmlns="http://www.w3.org/2000/svg">
<path d="M173.997 293.54C173.855 294.97 173.515 295.862 173.473 296.867C173.19 306.849 169.565 316.321 163.363 324.051C157.162 331.782 148.61 337.332 138.883 339.711C128.505 342.585 117.447 341.693 107.621 337.261C97.7948 332.83 89.9224 325.212 85.1084 315.457C80.3086 305.829 79.0771 294.856 81.4557 284.379C83.8344 273.902 89.8802 264.614 98.4745 258.072C100.471 256.741 101.83 254.603 102.297 252.14C104.817 241.648 107.479 231.284 109.999 220.779C111.514 214.506 111.387 213.246 119.825 212.255C125.602 211.675 131.591 211.802 137.552 211.632L139.662 211.42C139.874 209.268 140.072 206.974 140.129 204.68C140.285 196.27 140.441 187.718 140.596 179.308C140.554 177.467 140.384 175.768 140.058 173.956C139.818 171.563 138.614 169.411 137 167.571C135.414 165.886 133.29 164.668 130.813 164.059C129.368 163.776 127.882 163.21 126.409 162.643C122.218 160.505 120.93 156.215 123.535 152.265C126.126 148.315 129.142 144.308 132.328 140.584C134.862 137.484 137.779 136.776 141.361 138.404C152.73 143.968 161.778 152.024 166.011 164.555C167.852 170.204 167.852 175.896 167.724 181.743C167.71 190.139 167.385 198.422 167.356 206.677C167.342 207.965 167.186 209.253 167.214 210.953L186.258 210.768C186.513 210.457 186.754 210.004 186.853 209.565C191.851 191.145 196.849 172.71 201.833 154.148C203.588 147.423 205.33 140.712 207.085 133.986C207.27 132.967 207.609 132.089 208.077 131.041C208.388 129.866 209.152 128.946 210.073 128.28C211.007 127.615 212.239 127.204 213.4 127.374L252.676 127.459C259.515 127.488 266.339 127.53 273.036 127.573L291.952 127.544C292.944 127.445 293.92 127.346 295.081 127.516C301.665 127.856 304.044 130.319 305.12 136.903C306.805 148.117 308.759 159.16 310.571 170.36C311.364 175.542 312.171 180.724 313.105 185.906C313.898 191.088 314.705 196.27 315.512 201.608C315.965 201.849 316.419 202.089 316.858 202.33C334.145 207.3 347.299 217.947 357.946 232.12C362.179 237.528 365.747 243.291 368.494 249.563L368.537 249.988C371.496 255.382 371.241 257.124 366.512 261.145C362.576 264.529 358.357 267.785 354.265 271.042C355.043 274.525 356.233 277.965 356.587 281.477C358.186 294.686 355.1 308.095 347.978 319.464C340.857 330.833 330.167 339.3 317.523 343.689C297.998 350.471 279.521 347.894 262.913 335.307C252.605 327.506 245.654 316.25 243.247 303.536C242.61 300.038 242.128 296.527 241.434 292.478C219.262 292.69 196.82 293.072 174.096 293.469H173.954L173.997 293.54ZM113.766 250.143L116.159 249.903C120.845 248.445 125.786 247.949 130.671 248.459C147.478 250.059 160.093 258.2 168.404 273.024C169.268 274.51 170.797 275.629 171.392 277.286C172 279.07 172.312 280.896 172.496 282.723C177.126 283.544 216.614 282.892 219.8 282.015C220.168 279.99 220.253 277.979 220.777 276.082C224.486 261.909 230.546 248.36 238.886 236.296C239.509 235.376 240.132 234.47 240.726 233.266L235.828 232.615C230.065 231.907 224.316 231.341 218.667 230.336C217.365 230.18 216.189 229.727 215.113 228.976C214.051 228.368 213.117 227.461 212.437 226.4C211.758 225.338 211.234 224.247 211.106 222.973C210.979 221.699 210.852 220.439 211.163 219.264C211.375 218.527 211.588 217.805 211.8 217.069L220.975 184.858C223.51 175.924 226.185 167.132 228.578 158.212C228.861 156.768 229.569 155.267 230.73 154.162C231.764 153.058 233.095 152.223 234.638 151.925C235.743 151.529 236.847 151.274 237.966 151.019C249.448 149.164 261.044 149.872 272.598 150.141C276.746 150.297 278.501 152.265 279.04 156.329L279.238 158.297C280.116 171.436 281.149 184.717 282.027 197.856L282.48 202.358C286.261 201.693 289.871 200.914 293.538 200.546C297.205 200.178 300.901 200.234 304.865 199.994C301.51 179.124 298.196 158.679 294.855 137.809L217.025 137.852C216.487 139.607 216.048 140.938 215.75 142.241C210.413 161.553 206.08 181.05 199.879 200.164C198.576 204.27 197.585 208.645 196.721 212.85C196.325 214.591 195.49 216.248 194.357 217.635C193.224 219.023 191.596 219.901 189.798 220.51C187.872 221.133 185.748 221.345 183.738 221.104C177.919 221.26 172.227 221.246 166.408 221.402C162.146 221.402 157.87 221.402 153.735 221.373C149.615 221.501 145.085 221.656 140.823 221.656C138.699 231.822 129.751 240.544 115.196 242.979C114.785 244.579 114.247 246.349 113.851 248.091C113.907 248.657 113.822 249.237 113.879 249.79L113.766 250.087V250.143ZM252.266 296.584C252.492 298.835 252.733 301.228 253.228 303.465C255.791 313.461 261.625 322.126 269.78 328.285C277.935 334.444 288.059 337.573 298.281 337.261C316.447 336.737 330.393 328.242 339.978 312.923C346.35 302.615 348.545 290.297 345.812 278.475C343.716 268.861 338.463 260.423 330.761 254.363C316.985 243.206 301.382 240.771 284.746 246.547C263.168 254.235 249.689 276.068 252.152 296.598H252.294L252.266 296.584ZM130.756 330.975C147.166 330.055 165.813 314.409 163.349 291.034C162.868 286.248 161.424 281.689 159.158 277.512C156.893 273.335 153.821 269.654 150.111 266.596C146.387 263.552 142.182 261.258 137.51 260.026C132.965 258.625 128.08 258.256 123.294 258.738C118.509 259.219 113.95 260.663 109.773 262.929C105.596 265.194 101.915 268.267 98.8568 271.976C95.8127 275.7 93.6745 280.032 92.287 284.577C90.8853 289.122 90.5173 294.007 90.9986 298.792C93.4198 320.328 112.944 333.467 130.898 330.975H130.756ZM242.595 282.312C248.754 256.94 263.876 240.077 289.39 234.838C315.173 229.429 335.632 239.072 350.357 261.371L359.447 254.065C359.078 253.244 358.739 252.706 358.555 252.31C357.861 251.092 357.167 249.747 356.473 248.529C349.592 236.551 340.885 226.173 328.921 218.966C314.833 210.4 299.938 207.894 283.939 213.048C273.348 216.658 263.72 222.888 256.145 231.171C243.53 244.523 235.743 260.663 230.801 278.22C230.504 279.537 230.207 280.839 229.81 282.581L242.609 282.453V282.312H242.595ZM221.513 220.382C222.391 220.58 222.83 220.679 223.396 220.764C230.745 221.741 238.093 222.577 245.441 223.554C246.46 223.738 247.579 223.624 248.542 223.242C249.505 222.86 250.439 222.336 251.204 221.416C256.626 215.894 262.856 211.292 269.766 207.767C270.573 207.257 271.507 206.733 272.314 206.238C271.351 190.819 270.276 175.712 269.313 160.293C258.736 159.783 248.585 159.359 238.249 161.242L221.485 220.241V220.382H221.513ZM135.018 154.559C135.471 154.8 136.08 155.168 136.519 155.408C145.538 158.778 149.927 165.744 150.408 174.947C150.89 184.15 150.337 192.886 150.38 201.849C150.422 205.119 149.46 208.347 150.493 211.66L157.176 211.561C157.275 208.277 157.374 204.992 157.488 201.849C157.587 192.872 157.841 183.881 157.657 174.933C157.742 171.507 156.992 168.165 155.534 165.036C154.075 161.907 152.107 159.118 149.587 156.81C146.444 153.851 143.301 150.75 138.996 149.037L135.004 154.7V154.559H135.018ZM129.907 222.081L120.392 222.308C119.868 224.205 119.585 225.663 119.16 227.122C118.877 228.566 117.886 230.095 118.353 231.893C121.001 231.341 123.294 230.123 125.418 228.495C127.372 226.739 129.015 224.587 129.907 222.067V222.081Z" fill="#102185"/>
<path d="M16.3684 0.00342741C23.0513 -0.0956828 29.6489 1.95729 35.1566 5.82259C39.1352 8.69678 42.491 12.3497 44.9121 16.6681C47.1492 20.5759 49.6552 24.3137 51.8923 28.2073C54.5966 32.4974 58.2071 35.9804 62.5963 38.529C66.5324 40.8368 70.7234 42.9889 74.6453 45.2968C85.1794 51.0735 92.8393 59.427 96.6904 70.9946C99.9186 80.6366 104.52 89.7123 110.608 97.9243C114.091 102.837 117.702 107.75 119.146 113.725C120.364 118.865 121.581 123.877 122.799 129.017C123.054 130.135 123.025 131.268 123.139 132.4C123.224 133.25 122.742 134.142 122.247 134.907C121.751 135.671 120.944 136.167 119.981 136.407C116.64 137.172 113.369 137.2 110.551 134.638C108.031 132.188 105.525 129.866 103.147 127.402C96.6619 120.79 89.0162 115.438 80.5069 111.446C74.9708 108.727 69.9162 105.103 65.6403 100.685C61.5343 96.5367 58.2211 91.8927 55.7009 86.5832C53.2089 81.5711 50.4338 76.5731 47.5455 71.745C44.6571 67.0585 40.5655 63.0516 35.7374 60.2482C30.442 57.0767 25.2741 53.7494 20.1061 50.4222C16.9063 48.3267 13.8198 45.9198 11.0164 43.357C5.40957 38.5006 1.75664 31.7611 0.751372 24.4553C-0.0415127 20.8307 -0.268079 17.022 0.369061 13.3974C0.836296 10.9339 1.88402 8.55522 3.54059 6.68629C5.19715 4.81735 7.33487 3.31654 9.67105 2.52366C12.1347 1.56087 14.7543 0.739655 16.694 0.116677L16.3964 0.00342741H16.3684ZM109.589 119.233L110.127 118.893C110.056 118.185 109.971 117.35 109.617 116.67C108.031 112.14 105.766 107.949 102.694 104.267C95.9259 94.8377 90.4607 84.2754 86.8077 73.26C84.5848 66.6479 80.1813 60.9703 74.2488 57.1475C69.8455 54.3158 65.1588 51.6398 60.6564 49.247C53.0107 45.3109 46.7243 39.3926 42.3068 32.1434C40.2538 28.6462 38.0593 25.1632 35.9921 21.5245C34.2789 18.5653 32.0419 16.0876 29.2951 14.2187C26.5483 12.3497 23.4193 10.9622 20.092 10.4383C13.7206 9.36225 9.55779 13.1992 10.0392 19.5423C10.2516 23.0819 11.1719 26.6924 12.8993 29.7931C14.6408 33.0354 17.0477 35.7822 19.9644 37.906C21.6493 39.1661 23.2071 40.4262 24.8778 41.5447C29.9041 44.8862 34.9302 48.2276 40.2114 51.2575C46.9934 55.137 52.8267 60.8146 56.7628 67.5399C59.4812 71.9715 61.9167 76.4174 64.083 81.0472C68.458 90.7175 76.3444 98.4623 86.0289 102.908C93.9436 106.674 101.264 111.644 107.564 117.704C108.201 118.355 108.824 118.865 109.447 119.502L109.56 119.205L109.589 119.233Z" fill="#102185"/>
<path d="M299.145 274.283C310.699 273.136 320.001 280.895 320.213 291.543C320.213 295.946 318.67 300.378 315.881 303.776C313.092 307.174 309.056 309.581 304.738 310.43C298.31 311.634 292.491 310.359 287.634 305.871C285.142 303.705 283.458 301.029 282.566 297.843C281.688 294.799 281.787 291.373 282.75 288.286C283.571 285.072 285.256 282.056 287.592 279.692C289.928 277.327 292.873 275.614 296.215 274.85C297.206 274.75 298.154 274.368 299.145 274.269V274.283ZM301.482 300.661C306.409 300.165 310.402 295.932 310.09 291.415C309.651 287.054 305.347 283.77 300.703 284.237C296.059 284.704 291.896 288.668 292.349 293.312C292.463 294.445 292.703 295.408 293.241 296.498C293.765 297.447 294.416 298.367 295.337 298.99C296.257 299.613 297.149 300.094 298.182 300.42C299.216 300.746 300.349 300.774 301.467 300.519V300.661H301.482Z" fill="#102185"/>
<path d="M113.525 294.983C112.746 287.097 117.773 280.471 125.135 280.032C132.498 279.593 139.209 284.18 139.747 292.52C140.101 296.045 139.039 299.698 136.901 302.473C134.621 305.263 131.379 307.004 127.868 307.5C120.421 308.377 114.318 302.87 113.553 295.125V294.983H113.525ZM126.693 297.093C127.542 297.008 128.335 296.498 128.972 295.734C129.468 294.969 129.807 294.091 129.723 293.242C129.638 292.392 129.27 291.585 128.788 291.061C128.151 290.41 127.415 290.056 126.551 290C125.701 290.085 124.923 290.736 124.413 291.345C123.917 292.109 123.578 292.987 123.663 293.837L123.79 295.111C123.833 295.536 124.144 295.79 124.47 296.187C124.781 296.442 125.093 296.697 125.546 296.937C125.999 297.178 126.282 297.15 126.721 297.249V297.107L126.693 297.093Z" fill="#102185"/>
</svg>

<svg xmlns="http://www.w3.org/2000/svg" width="371" height="348" fill="none" viewBox="0 0 371 348"><path fill="#102185" d="M173.997 293.54c-.142 1.43-.482 2.322-.524 3.327-.283 9.982-3.908 19.454-10.11 27.184-6.201 7.731-14.753 13.281-24.48 15.66-10.378 2.874-21.436 1.982-31.262-2.45-9.826-4.431-17.699-12.049-22.513-21.804-4.8-9.628-6.03-20.601-3.652-31.078s8.424-19.765 17.019-26.307c1.996-1.331 3.355-3.469 3.822-5.932 2.52-10.492 5.182-20.856 7.702-31.361 1.515-6.273 1.388-7.533 9.826-8.524 5.777-.58 11.766-.453 17.727-.623l2.11-.212c.212-2.152.41-4.446.467-6.74.156-8.41.312-16.962.467-25.372a34 34 0 0 0-.538-5.352c-.24-2.393-1.444-4.545-3.058-6.385-1.586-1.685-3.71-2.903-6.187-3.512-1.445-.283-2.931-.849-4.404-1.416-4.191-2.138-5.479-6.428-2.874-10.378a117 117 0 0 1 8.793-11.681c2.534-3.1 5.451-3.808 9.033-2.18 11.369 5.564 20.417 13.62 24.65 26.151 1.841 5.649 1.841 11.341 1.713 17.188-.014 8.396-.339 16.679-.368 24.934-.014 1.288-.17 2.576-.142 4.276l19.044-.185a3.1 3.1 0 0 0 .595-1.203c4.998-18.42 9.996-36.855 14.98-55.417 1.755-6.725 3.497-13.436 5.252-20.162.185-1.019.524-1.897.992-2.945.311-1.175 1.075-2.095 1.996-2.761.934-.665 2.166-1.076 3.327-.906l39.276.085c6.839.029 13.663.071 20.36.114l18.916-.029c.992-.099 1.968-.198 3.129-.028 6.584.34 8.963 2.803 10.039 9.387 1.685 11.214 3.639 22.257 5.451 33.457.793 5.182 1.6 10.364 2.534 15.546.793 5.182 1.6 10.364 2.407 15.702.453.241.907.481 1.346.722 17.287 4.97 30.441 15.617 41.088 29.79 4.233 5.408 7.801 11.171 10.548 17.443l.043.425c2.959 5.394 2.704 7.136-2.025 11.157-3.936 3.384-8.155 6.64-12.247 9.897.778 3.483 1.968 6.923 2.322 10.435 1.599 13.209-1.487 26.618-8.609 37.987s-17.811 19.836-30.455 24.225c-19.525 6.782-38.002 4.205-54.61-8.382-10.308-7.801-17.259-19.057-19.666-31.771-.637-3.498-1.119-7.009-1.813-11.058-22.172.212-44.614.594-67.338.991h-.142zm-60.231-43.397 2.393-.24a36.2 36.2 0 0 1 14.512-1.444c16.807 1.6 29.422 9.741 37.733 24.565.864 1.486 2.393 2.605 2.988 4.262.608 1.784.92 3.61 1.104 5.437 4.63.821 44.118.169 47.304-.708.368-2.025.453-4.036.977-5.933 3.709-14.173 9.769-27.722 18.109-39.786.623-.92 1.246-1.826 1.84-3.03l-4.898-.651c-5.763-.708-11.512-1.274-17.161-2.279a7.7 7.7 0 0 1-3.554-1.36c-1.062-.608-1.996-1.515-2.676-2.576-.679-1.062-1.203-2.153-1.331-3.427s-.254-2.534.057-3.709c.212-.737.425-1.459.637-2.195l9.175-32.211c2.535-8.934 5.21-17.726 7.603-26.646.283-1.444.991-2.945 2.152-4.05 1.034-1.104 2.365-1.939 3.908-2.237 1.105-.396 2.209-.651 3.328-.906 11.482-1.855 23.078-1.147 34.632-.878 4.148.156 5.903 2.124 6.442 6.188l.198 1.968c.878 13.139 1.911 26.42 2.789 39.559l.453 4.502c3.781-.665 7.391-1.444 11.058-1.812s7.363-.312 11.327-.552c-3.355-20.87-6.669-41.315-10.01-62.185l-77.83.043c-.538 1.755-.977 3.086-1.275 4.389-5.337 19.312-9.67 38.809-15.871 57.923-1.303 4.106-2.294 8.481-3.158 12.686-.396 1.741-1.231 3.398-2.364 4.785s-2.761 2.266-4.559 2.875a14.4 14.4 0 0 1-6.06.594c-5.819.156-11.511.142-17.33.298-4.262 0-8.538 0-12.673-.029-4.12.128-8.65.283-12.912.283-2.124 10.166-11.072 18.888-25.627 21.323-.411 1.6-.949 3.37-1.345 5.112.056.566-.029 1.146.028 1.699l-.113.297zm138.5 46.441c.226 2.251.467 4.644.962 6.881 2.563 9.996 8.397 18.661 16.552 24.82s18.279 9.288 28.501 8.976c18.166-.524 32.112-9.019 41.697-24.338 6.372-10.308 8.567-22.626 5.834-34.448-2.096-9.614-7.349-18.052-15.051-24.112-13.776-11.157-29.379-13.592-46.015-7.816-21.578 7.688-35.057 29.521-32.594 50.051h.142zm-121.51 34.391c16.41-.92 35.057-16.566 32.593-39.941-.481-4.786-1.925-9.345-4.191-13.522s-5.337-7.858-9.047-10.916c-3.724-3.044-7.929-5.338-12.601-6.57-4.545-1.401-9.43-1.77-14.216-1.288-4.785.481-9.344 1.925-13.521 4.191s-7.858 5.338-10.916 9.047c-3.044 3.724-5.183 8.056-6.57 12.601-1.402 4.545-1.77 9.43-1.288 14.215 2.42 21.536 21.945 34.675 39.899 32.183zm111.839-48.663c6.159-25.372 21.281-42.235 46.795-47.474 25.783-5.409 46.242 4.234 60.967 26.533l9.09-7.306c-.369-.821-.708-1.359-.892-1.755-.694-1.218-1.388-2.563-2.082-3.781-6.881-11.978-15.588-22.356-27.552-29.563-14.088-8.566-28.983-11.072-44.982-5.918-10.591 3.61-20.219 9.84-27.794 18.123-12.615 13.352-20.402 29.492-25.344 47.049-.297 1.317-.594 2.619-.991 4.361l12.799-.128v-.141zm-21.082-61.93c.878.198 1.317.297 1.883.382 7.349.977 14.697 1.813 22.045 2.79a5.8 5.8 0 0 0 3.101-.312c.963-.382 1.897-.906 2.662-1.826a71.5 71.5 0 0 1 18.562-13.649c.807-.51 1.741-1.034 2.548-1.529-.963-15.419-2.038-30.526-3.001-45.945-10.577-.51-20.728-.934-31.064.949l-16.764 58.999v.141zm-86.495-65.823c.453.241 1.062.609 1.501.849 9.019 3.37 13.408 10.336 13.889 19.539.482 9.203-.071 17.939-.028 26.902.042 3.27-.92 6.498.113 9.811l6.683-.099c.099-3.284.198-6.569.312-9.712.099-8.977.353-17.968.169-26.916.085-3.426-.665-6.768-2.123-9.897s-3.427-5.918-5.947-8.226c-3.143-2.959-6.286-6.06-10.591-7.773l-3.992 5.663v-.141zm-5.111 67.522-9.515.227c-.524 1.897-.807 3.355-1.232 4.814-.283 1.444-1.274 2.973-.807 4.771 2.648-.552 4.941-1.77 7.065-3.398 1.954-1.756 3.597-3.908 4.489-6.428zM16.368.003c6.683-.099 13.28 1.954 18.789 5.82 3.978 2.874 7.334 6.527 9.755 10.845 2.237 3.908 4.743 7.646 6.98 11.54a30.9 30.9 0 0 0 10.704 10.321c3.936 2.308 8.127 4.46 12.05 6.768 10.533 5.777 18.193 14.13 22.044 25.698 3.229 9.642 7.83 18.717 13.918 26.93 3.483 4.912 7.094 9.825 8.538 15.8 1.218 5.14 2.435 10.152 3.653 15.292.255 1.118.226 2.251.34 3.383.085.85-.397 1.742-.892 2.507-.496.764-1.303 1.26-2.266 1.5-3.341.765-6.612.793-9.43-1.769-2.52-2.45-5.026-4.772-7.404-7.236-6.485-6.612-14.13-11.964-22.64-15.956-5.536-2.719-10.59-6.343-14.867-10.761-4.106-4.148-7.419-8.792-9.94-14.102-2.491-5.012-5.266-10.01-8.155-14.838a34 34 0 0 0-11.808-11.497c-5.295-3.171-10.463-6.499-15.63-9.826a72 72 0 0 1-9.09-7.065A30.56 30.56 0 0 1 .75 24.455c-.793-3.624-1.02-7.433-.382-11.058.467-2.463 1.515-4.842 3.172-6.71 1.656-1.87 3.794-3.37 6.13-4.163C12.135 1.56 14.754.74 16.694.117l-.298-.114zm93.221 119.23.538-.34c-.071-.708-.156-1.543-.51-2.223-1.586-4.53-3.851-8.721-6.923-12.403-6.768-9.43-12.233-19.992-15.886-31.007a30.85 30.85 0 0 0-12.56-16.113c-4.403-2.831-9.09-5.507-13.592-7.9-7.645-3.936-13.932-9.854-18.35-17.104-2.052-3.497-4.247-6.98-6.314-10.619-1.713-2.959-3.95-5.436-6.697-7.305-2.747-1.87-5.876-3.257-9.203-3.78-6.371-1.077-10.534 2.76-10.053 9.103.213 3.54 1.133 7.15 2.86 10.251a24.1 24.1 0 0 0 7.065 8.113c1.685 1.26 3.243 2.52 4.914 3.639 5.026 3.341 10.052 6.683 15.333 9.712 6.782 3.88 12.616 9.558 16.552 16.283 2.718 4.432 5.154 8.877 7.32 13.507 4.375 9.67 12.261 17.415 21.946 21.861 7.915 3.766 15.235 8.736 21.535 14.796.637.651 1.26 1.161 1.883 1.798l.113-.297z"/><path fill="#102185" d="M299.145 274.283c11.554-1.147 20.856 6.612 21.068 17.26 0 4.403-1.543 8.835-4.332 12.233s-6.825 5.805-11.143 6.654c-6.428 1.204-12.247-.071-17.104-4.559-2.492-2.166-4.176-4.842-5.068-8.028-.878-3.044-.779-6.47.184-9.557.821-3.214 2.506-6.23 4.842-8.594 2.336-2.365 5.281-4.078 8.623-4.842.991-.1 1.939-.482 2.93-.581zm2.337 26.378c4.927-.496 8.92-4.729 8.608-9.246-.439-4.361-4.743-7.645-9.387-7.178s-8.807 4.431-8.354 9.075c.114 1.133.354 2.096.892 3.186.524.949 1.175 1.869 2.096 2.492.92.623 1.812 1.104 2.845 1.43s2.167.354 3.285.099v.142zM113.525 294.983c-.779-7.886 4.248-14.512 11.61-14.951 7.363-.439 14.074 4.148 14.612 12.488.354 3.525-.708 7.178-2.846 9.953-2.28 2.79-5.522 4.531-9.033 5.027-7.447.877-13.55-4.63-14.315-12.375v-.142zm13.168 2.11c.849-.085 1.642-.595 2.279-1.359.496-.765.835-1.643.751-2.492-.085-.85-.453-1.657-.935-2.181-.637-.651-1.373-1.005-2.237-1.061-.85.085-1.628.736-2.138 1.345-.496.764-.835 1.642-.75 2.492l.127 1.274c.043.425.354.679.68 1.076.311.255.623.51 1.076.75.453.241.736.213 1.175.312v-.142z"/></svg>
